X:11
T:March,2voices. JGi.011
S:Joshua Gibbons MS,1823,Tealby,Lincs.
M:C
L:1/8
Q:1/4=120
R:march
O:Tealby,Lincolnshire
Z:VMP/R.Greig, 2009
K:C
[V:1]|:c2c>cc2e>g|gfdB c2 d>e|f>ga>g f>ge>f|d2d>dd2e^f|
[V:2]|:E2E>EE2c>e|d2BF E2B>c|d>ef>e d>ec>d|B2B>BB2c2|
[V:1]g2b2d2 e^f|ggab d2 g^f|e2 ca^f2de/f/|g2 g>g g4:|
[V:2]BdBd AcAc|BdBd cdBd|c2z2c2d>c|B2B>BB4:|
[V:1]|:d2d>ef2f>g|a2 a>b c’4|c2 c>d e2f>e|(ag).f.e d2g>f|
[V:2]|:B2B>cd2d>e|d2B>e ffed|E2G>FG2d>c|(fe).d.cB2d>e|
[V:1]e4d>cd>e|c2 c>c c2 d>e|f>ga>g f>ge>g|d2d>dd2e>f|
[V:2]c2G2F>EF>G|E2E>EE2B>c|d>ef>ed2c>d|B2B>BB2c>d|
[V:1]g2c’2a2fg/a/|b2 ga/b/c’3g|a>gf>ed2 g2|c2c>cc4:|
[V:2]e4f4|d2g>fe3e|f>ed>c B2B2|c2E>EE4:|

